assets/features/global-acquiring/DANA.svg

<svg width="20" height="20" viewBox="0 0 20 20" fill="none" xmlns="http://www.w3.org/2000/svg">
<rect width="20" height="20" rx="4" fill="#108DE8"/>
<path fill-rule="evenodd" clip-rule="evenodd" d="M9.62133 5.01816C7.96647 5.17575 6.62682 6.0508 5.8139 7.40278C5.28716 8.28197 5.03831 9.31876 5.11297 10.3887C5.30375 13.0014 7.54757 15.2119 10.4177 14.9838C12.9974 14.7764 15.121 12.4582 14.9053 9.60907C14.8265 8.56398 14.4615 7.70552 13.8808 6.92585C13.6154 6.57334 13.5656 6.5692 13.2919 6.28304C12.9477 5.92639 12.226 5.51582 11.7656 5.33334C11.1518 5.08866 10.3637 4.94766 9.62133 5.01816Z" fill="white"/>
<path fill-rule="evenodd" clip-rule="evenodd" d="M7.166 8.54331C7.10378 8.72578 7.14111 10.7372 7.14111 11.1104C7.14111 11.5127 7.06231 11.6412 7.69273 11.8569C9.36834 12.4292 11.0232 10.4883 12.6864 11.4463C12.761 11.4919 12.8564 11.5832 12.8771 11.438L12.8813 8.84605C12.8813 8.56819 12.9062 8.4811 12.7195 8.35254C11.2306 7.31575 9.62133 9.09073 8.11163 8.89167C7.55172 8.81702 7.31945 8.53087 7.166 8.54331Z" fill="#108DE8"/>
</svg>

<svg xmlns="http://www.w3.org/2000/svg" width="20" height="20" fill="none" viewBox="0 0 20 20"><rect width="20" height="20" fill="#108de8" rx="4"/><path fill="#fff" fill-rule="evenodd" d="M9.621 5.018c-1.655.158-2.994 1.033-3.807 2.385a5.1 5.1 0 0 0-.701 2.986c.19 2.612 2.435 4.823 5.305 4.595 2.58-.208 4.703-2.526 4.487-5.375-.079-1.045-.444-1.903-1.024-2.683-.266-.353-.315-.357-.59-.643-.343-.357-1.065-.767-1.525-.95a4.8 4.8 0 0 0-2.145-.315" clip-rule="evenodd"/><path fill="#108de8" fill-rule="evenodd" d="M7.166 8.543c-.062.183-.025 2.194-.025 2.567 0 .403-.079.531.552.747 1.675.572 3.33-1.369 4.993-.41.075.045.17.136.191-.009l.004-2.592c0-.278.025-.365-.162-.493-1.488-1.037-3.098.738-4.607.539-.56-.075-.793-.361-.946-.349" clip-rule="evenodd"/></svg>
